X: 9462
T: Danzig Willie
R: slip jig
M: 9/8
K: Gmajor
(3BcB G>B c>e|d2 d>e d>c|(3BcB G>B c>B|A>F D2 G>A|
(3BcB G>B c>e|d2 d>e d>c|(3BcB G>B A>F|1 G4:|2 G4 g>f||
|:e2 c>e d>c|d2 G>B c>B|A2 D>F A>c|c>B A>G g>f|
(3ege c>e d>c|d2 G>B c>B|(3ABA D>F A>F|1 G2 g2 f2:|2 G4||

